packages/tokens/icons/fileMove/size16Px.svg

<svg viewBox="0 0 16 16" fill="none" xmlns="http://www.w3.org/2000/svg" width="1em" height="1em"><path d="M3.50001 5.5L3.50001 3.5C3.50001 2.39543 4.39544 1.5 5.50001 1.5L9.67157 1.5C10.202 1.5 10.7107 1.71071 11.0858 2.08579L12.9142 3.91421C13.2893 4.28929 13.5 4.79799 13.5 5.32843L13.5 12.5C13.5 13.6046 12.6046 14.5 11.5 14.5L5.50001 14.5C4.39544 14.5 3.50001 13.6046 3.50001 12.5L3.50001 11.5" stroke="currentColor" stroke-linecap="round"/><path d="M10.5 2V3.5C10.5 4.05228 10.9477 4.5 11.5 4.5H13" stroke="currentColor" stroke-linecap="round" stroke-linejoin="round"/><path d="M1 8.5L10.5 8.5M10.5 8.5L8.5 6.5M10.5 8.5L8.5 10.5" stroke="currentColor" stroke-linecap="round" stroke-linejoin="round"/></svg>

<svg xmlns="http://www.w3.org/2000/svg" fill="none" viewBox="0 0 16 16" width="1em" height="1em"><path stroke="currentColor" stroke-linecap="round" d="M3.5 5.5v-2a2 2 0 0 1 2-2h4.172a2 2 0 0 1 1.414.586l1.828 1.828a2 2 0 0 1 .586 1.414V12.5a2 2 0 0 1-2 2h-6a2 2 0 0 1-2-2v-1"/><path stroke="currentColor" stroke-linecap="round" stroke-linejoin="round" d="M10.5 2v1.5a1 1 0 0 0 1 1H13m-12 4h9.5m0 0-2-2m2 2-2 2"/></svg>
